X: 29265
T: New Mown Meadows, The
R: reel
M: 4/4
K: Ddorian
|:AD~D2 ~D2EG|AcBG AGEG|AD~D2 AGEG|~G2AG EDEG|
AD~D2 ~D2EG|AcBG AGEG|c3A ~B3A|1 GBAG EDEG:|2 GBAG E~G2B||
|:d2Bd edBd|dGBG AGEG|d2Bd eddB|GBAG E~G3|
d2Bd edBd|dGBG AGEG|c3A ~B3A|1 GBAG EGGB:|2 GBAG EDEG||

